src/assets/images/tip.svg

<svg fill="none" height="18" viewBox="0 0 17 18" width="17" xmlns="http://www.w3.org/2000/svg"><path d="m13.9854 10.4541c0 .8229.004 1.5861 0 2.3492-.004.809-.2909 1.2194-1.0581 1.4884-.5937.2092-1.1915.4025-1.7893.5998-.8547.2809-1.1337.6655-1.1357 1.5761v.7671c-2.22365 0-4.40348 0-6.65504 0 0-.7093-.02988-1.4027.00598-2.0902.05778-1.07-.33873-1.8809-1.09987-2.6441-2.155919-2.1579-2.797513-4.77405-1.783316-7.63532.998256-2.82142 3.116316-4.459279 6.093146-4.8119568 3.42715-.4064752 6.2964 1.5462068 7.0655 4.9474468.3108 1.37285.9285 2.41893 1.8132 3.41719.8528.96438.7532 1.27123-.4523 1.68764-.3288.1136-.6535.2272-1.0042.3487zm-7.82469-4.45926c.06376-.17733.10361-.33873.17933-.48418.25305-.49216.68742-.63761 1.20747-.60175.46625.03188.83686.2152.98431.69141.15741.5061-.02789.91258-.4264 1.22541-.20722.16338-.43636.30087-.65554.44632-.70137.46825-.91656 1.12777-.77509 1.96663h1.2533c-.14546-.83487.38854-1.23936 1.00224-1.59403.12752-.07372.24906-.16538.36064-.26301 1.14973-1.00025.91063-2.73375-.4782-3.36339-.87472-.39651-1.77136-.39252-2.65006.002-.79303.35666-1.24733 1.1178-1.18954 1.94869.09564.00797.19327.02391.29091.02391.29688.00398.59377.00199.89663.00199zm1.18356 4.82196c-.54595 0-.92851.3746-.91457.8966.01395.5021.38655.8508.91258.8528.55193.002.91656-.3606.90461-.8986-.01395-.5221-.36463-.8508-.90262-.8508z" fill="#5a57c6"/></svg>

<svg width="17" height="18" viewBox="0 0 17 18" fill="none" xmlns="http://www.w3.org/2000/svg">
<path d="M13.9854 10.4541C13.9854 11.277 13.9894 12.0402 13.9854 12.8033C13.9814 13.6123 13.6945 14.0227 12.9273 14.2917C12.3336 14.5009 11.7358 14.6942 11.138 14.8915C10.2833 15.1724 10.0043 15.557 10.0023 16.4676C10.0023 16.7127 10.0023 16.9597 10.0023 17.2347C7.77865 17.2347 5.59882 17.2347 3.34726 17.2347C3.34726 16.5254 3.31738 15.832 3.35324 15.1445C3.41102 14.0745 3.01451 13.2636 2.25337 12.5004C0.097451 10.3425 -0.544143 7.72635 0.470054 4.86508C1.46831 2.04366 3.58637 0.405801 6.5632 0.0531232C9.99035 -0.353352 12.8596 1.59933 13.6287 5.00057C13.9395 6.37342 14.5572 7.4195 15.4419 8.41776C16.2947 9.38214 16.1951 9.68899 14.9896 10.1054C14.6608 10.219 14.3361 10.3326 13.9854 10.4541ZM6.16071 5.99484C6.22447 5.81751 6.26432 5.65611 6.34004 5.51066C6.59309 5.0185 7.02746 4.87305 7.54751 4.90891C8.01376 4.94079 8.38437 5.12411 8.53182 5.60032C8.68923 6.10642 8.50393 6.5129 8.10542 6.82573C7.8982 6.98911 7.66906 7.1266 7.44988 7.27205C6.74851 7.7403 6.53332 8.39982 6.67479 9.23868C7.07927 9.23868 7.4698 9.23868 7.92809 9.23868C7.78263 8.40381 8.31663 7.99932 8.93033 7.64465C9.05785 7.57093 9.17939 7.47927 9.29097 7.38164C10.4407 6.38139 10.2016 4.64789 8.81277 4.01825C7.93805 3.62174 7.04141 3.62573 6.16271 4.02025C5.36968 4.37691 4.91538 5.13805 4.97317 5.96894C5.06881 5.97691 5.16644 5.99285 5.26408 5.99285C5.56096 5.99683 5.85785 5.99484 6.16071 5.99484ZM7.34427 10.8168C6.79832 10.8168 6.41576 11.1914 6.4297 11.7134C6.44365 12.2155 6.81625 12.5642 7.34228 12.5662C7.89421 12.5682 8.25884 12.2056 8.24689 11.6676C8.23294 11.1455 7.88226 10.8168 7.34427 10.8168Z" fill="#5A57C6"/>
</svg>
